source/images/icons/plus.svg

<svg width="20" height="19" viewBox="0 0 20 19" fill="none" xmlns="http://www.w3.org/2000/svg">
<path fill-rule="evenodd" clip-rule="evenodd" d="M9.36003 0.0341399C9.14873 0.0940298 8.87332 0.28909 8.75156 0.465117C8.53517 0.777875 8.54424 0.595529 8.54424 4.63745V8.35033H5.02017C2.66379 8.35033 1.42299 8.3636 1.27555 8.39036C0.70845 8.49334 0.350342 8.92391 0.350342 9.50277C0.350342 10.0816 0.70845 10.5122 1.27555 10.6152C1.42299 10.6419 2.66353 10.6552 5.01932 10.6552H8.54253L8.55268 14.4007L8.56282 18.1461L8.64823 18.332C8.84344 18.7569 9.22188 18.998 9.69643 19C10.1748 19.002 10.5173 18.7757 10.7334 18.3151L10.83 18.1089L10.8407 14.3821L10.8513 10.6552H14.5227C16.9843 10.6552 18.2668 10.642 18.4146 10.6152C19.4315 10.4306 19.6936 9.13034 18.8311 8.54966C18.7186 8.47386 18.574 8.41843 18.4184 8.39133C18.2457 8.36122 17.1536 8.35661 14.4952 8.37468L10.8115 8.39977V4.65886C10.8115 0.998847 10.8098 0.913678 10.7365 0.717651C10.648 0.481102 10.4125 0.226895 10.1695 0.105517C9.95954 0.000681823 9.59236 -0.0316981 9.36003 0.0341399Z" fill="white"/>
</svg>

<svg viewBox="0 0 20 19" fill="none" xmlns="http://www.w3.org/2000/svg"><path fill-rule="evenodd" clip-rule="evenodd" d="M9.36.03a1.3 1.3 0 0 0-.6.44c-.22.3-.22.13-.22 4.17v3.71h-3.52c-2.36 0-3.6.01-3.74.04-.57.1-.93.53-.93 1.11 0 .58.36 1.01.93 1.12.14.02 1.38.04 3.74.04h3.52l.01 3.74.01 3.75.09.18c.2.43.57.67 1.05.67.47 0 .82-.22 1.03-.68l.1-.21.01-3.73.01-3.72h3.67c2.46 0 3.75-.02 3.9-.04a1.13 1.13 0 0 0 0-2.23 75.4 75.4 0 0 0-3.92-.02l-3.69.03v-3.74c0-3.66 0-3.75-.07-3.94-.1-.24-.33-.5-.57-.61a1.4 1.4 0 0 0-.81-.08Z" fill="#fff"/></svg>
